docs/images/icons/tilda.svg

<svg width="50" height="50" viewBox="0 0 50 50" fill="none" xmlns="http://www.w3.org/2000/svg">
<g id="tilda_logo_white 1" clip-path="url(#clip0_54_160)">
<g id="Group">
<path id="Vector" d="M26.2167 22.1833V39.5167H22.9833V20.9667L26.2167 22.1833Z" fill="#F28147"/>
<path id="Vector_2" d="M13.3 20.5667C13.3 16.1333 15.7167 13.7167 18.55 13.7167C21.3833 13.7167 21.7833 14.1167 25 15.7333C28.2167 17.35 29.0333 17.75 30.65 17.75C32.2667 17.75 33.0667 16.5333 33.0667 14.1167H35.8833C36.2833 18.95 33.4667 20.9667 30.6333 20.9667C27.8 20.9667 27 20.5667 24.1833 18.95C21.3667 17.3333 20.55 16.9333 18.9333 16.9333C17.3167 16.9333 16.5167 18.15 16.1167 20.9667L13.3 20.5667Z" fill="#F28147"/>
<path id="Vector_3" d="M25 50C11.2167 50 0 38.7833 0 25C0 11.2167 11.2167 0 25 0C38.7833 0 50 11.2167 50 25C50 38.7833 38.7833 50 25 50ZM25 1.61667C12.1 1.61667 1.61667 12.1 1.61667 25C1.61667 37.9 12.1 48.3833 25 48.3833C37.9 48.3833 48.3833 37.9 48.3833 25C48.3833 12.1 37.9 1.61667 25 1.61667Z" fill="#F28147"/>
</g>
</g>
<defs>
<clipPath id="clip0_54_160">
<rect width="50" height="50" fill="white"/>
</clipPath>
</defs>
</svg>

<svg width="50" height="50" fill="none" xmlns="http://www.w3.org/2000/svg"><g fill="#F28147" clip-path="url(#a)"><path d="M26.217 22.183v17.334h-3.234v-18.55l3.234 1.216Z"/><path d="M13.3 20.567c0-4.434 2.417-6.85 5.25-6.85s3.233.4 6.45 2.016c3.217 1.617 4.033 2.017 5.65 2.017s2.417-1.217 2.417-3.633h2.816c.4 4.833-2.416 6.85-5.25 6.85-2.833 0-3.633-.4-6.45-2.017-2.816-1.617-3.633-2.017-5.25-2.017-1.616 0-2.416 1.217-2.816 4.034l-2.817-.4Z"/><path d="M25 50C11.217 50 0 38.783 0 25S11.217 0 25 0s25 11.217 25 25-11.217 25-25 25Zm0-48.383C12.1 1.617 1.617 12.1 1.617 25 1.617 37.9 12.1 48.383 25 48.383 37.9 48.383 48.383 37.9 48.383 25 48.383 12.1 37.9 1.617 25 1.617Z"/></g><defs><clipPath id="a"><path fill="#fff" d="M0 0h50v50H0z"/></clipPath></defs></svg>
